images/indikatorenset/4325.svg

<?xml version="1.0" standalone="no"?><!DOCTYPE svg PUBLIC "-//W3C//DTD SVG 1.1//EN" "http://www.w3.org/Graphics/SVG/1.1/DTD/svg11.dtd"><svg xmlns:xlink="http://www.w3.org/1999/xlink" version="1.1" class="highcharts-root" style="font-family:arial;font-size:9pt;" xmlns="http://www.w3.org/2000/svg" width="485" height="415"><desc>Created with Highstock 5.0.14</desc><defs><clipPath id="highcharts-k4z32m2-8"><rect x="0" y="0" width="383" height="254" fill="none"></rect></clipPath><clipPath id="highcharts-k4z32m2-9"><rect x="0" y="0" width="383" height="254" fill="none"></rect></clipPath><clipPath id="highcharts-k4z32m2-10"><rect x="0" y="0" width="383" height="254" fill="none"></rect></clipPath></defs><rect fill="#fbfbfb" class="highcharts-background" x="0" y="0" width="485" height="415" rx="0" ry="0"></rect><rect fill="none" class="highcharts-plot-background" x="49" y="90" width="383" height="254"></rect><g class="highcharts-label" style="cursor:pointer;" transform="translate(10,451)"><text x="0" y="0"><tspan>&gt; Indikator-Details</tspan></text></g><g class="highcharts-pane-group"></g><g class="highcharts-grid highcharts-xaxis-grid "><path fill="none" class="highcharts-grid-line" d="M 57.5 90 L 57.5 344" opacity="1"></path><path fill="none" class="highcharts-grid-line" d="M 92.5 90 L 92.5 344" opacity="1"></path><path fill="none" class="highcharts-grid-line" d="M 126.5 90 L 126.5 344" opacity="1"></path><path fill="none" class="highcharts-grid-line" d="M 161.5 90 L 161.5 344" opacity="1"></path><path fill="none" class="highcharts-grid-line" d="M 196.5 90 L 196.5 344" opacity="1"></path><path fill="none" class="highcharts-grid-line" d="M 231.5 90 L 231.5 344" opacity="1"></path><path fill="none" class="highcharts-grid-line" d="M 266.5 90 L 266.5 344" opacity="1"></path><path fill="none" class="highcharts-grid-line" d="M 300.5 90 L 300.5 344" opacity="1"></path><path fill="none" class="highcharts-grid-line" d="M 335.5 90 L 335.5 344" opacity="1"></path><path fill="none" class="highcharts-grid-line" d="M 370.5 90 L 370.5 344" opacity="1"></path><path fill="none" class="highcharts-grid-line" d="M 405.5 90 L 405.5 344" opacity="1"></path></g><g class="highcharts-grid highcharts-yaxis-grid "><path fill="none" stroke="#e6e6e6" stroke-width="1" class="highcharts-grid-line" d="M 49 344.5 L 432 344.5" opacity="1"></path><path fill="none" stroke="#e6e6e6" stroke-width="1" class="highcharts-grid-line" d="M 49 281.5 L 432 281.5" opacity="1"></path><path fill="none" stroke="#e6e6e6" stroke-width="1" class="highcharts-grid-line" d="M 49 217.5 L 432 217.5" opacity="1"></path><path fill="none" stroke="#e6e6e6" stroke-width="1" class="highcharts-grid-line" d="M 49 154.5 L 432 154.5" opacity="1"></path><path fill="none" stroke="#e6e6e6" stroke-width="1" class="highcharts-grid-line" d="M 49 90.5 L 432 90.5" opacity="1"></path></g><g class="highcharts-grid highcharts-yaxis-grid "><path fill="none" stroke="#e6e6e6" stroke-width="1" class="highcharts-grid-line" d="M 49 344.5 L 432 344.5" opacity="1"></path><path fill="none" stroke="#e6e6e6" stroke-width="1" class="highcharts-grid-line" d="M 49 281.5 L 432 281.5" opacity="1"></path><path fill="none" stroke="#e6e6e6" stroke-width="1" class="highcharts-grid-line" d="M 49 217.5 L 432 217.5" opacity="1"></path><path fill="none" stroke="#e6e6e6" stroke-width="1" class="highcharts-grid-line" d="M 49 154.5 L 432 154.5" opacity="1"></path><path fill="none" stroke="#e6e6e6" stroke-width="1" class="highcharts-grid-line" d="M 49 89.5 L 432 89.5" opacity="1"></path></g><rect fill="none" class="highcharts-plot-border" x="49" y="90" width="383" height="254"></rect><g class="highcharts-axis highcharts-xaxis "><path fill="none" class="highcharts-axis-line" stroke="#ccd6eb" stroke-width="1" d="M 49 344.5 L 432 344.5"></path></g><g class="highcharts-axis highcharts-yaxis "><path fill="none" class="highcharts-axis-line" d="M 49 90 L 49 344"></path></g><g class="highcharts-axis highcharts-yaxis "><text x="475.328125" text-anchor="middle" transform="translate(0,0) rotate(90 475.328125 217)" class="highcharts-axis-title" style="color:#000000;font-size:0.9em;fill:#000000;" y="217"></text><path fill="none" class="highcharts-axis-line" d="M 432 90 L 432 344"></path></g><g class="highcharts-series-group"><g class="highcharts-series highcharts-series-0 highcharts-column-series highcharts-color-undefined " transform="translate(49,90) scale(1 1)" clip-path="url(#highcharts-k4z32m2-9)"><rect x="5" y="73" width="9" height="182" fill="#FF8028" class="highcharts-point"></rect><rect x="22" y="73" width="9" height="182" fill="#FF8028" class="highcharts-point"></rect><rect x="39" y="74" width="9" height="181" fill="#FF8028" class="highcharts-point"></rect><rect x="57" y="71" width="9" height="184" fill="#FF8028" class="highcharts-point"></rect><rect x="74" y="69" width="9" height="186" fill="#FF8028" class="highcharts-point"></rect><rect x="92" y="68" width="9" height="187" fill="#FF8028" class="highcharts-point"></rect><rect x="109" y="67" width="9" height="188" fill="#FF8028" class="highcharts-point"></rect><rect x="126" y="68" width="9" height="187" fill="#FF8028" class="highcharts-point"></rect><rect x="144" y="67" width="9" height="188" fill="#FF8028" class="highcharts-point"></rect><rect x="161" y="55" width="9" height="200" fill="#FF8028" class="highcharts-point"></rect><rect x="179" y="56" width="9" height="199" fill="#FF8028" class="highcharts-point"></rect><rect x="196" y="57" width="9" height="198" fill="#FF8028" class="highcharts-point"></rect><rect x="213" y="57" width="9" height="198" fill="#FF8028" class="highcharts-point"></rect><rect x="231" y="58" width="9" height="197" fill="#FF8028" class="highcharts-point"></rect><rect x="248" y="58" width="9" height="197" fill="#FF8028" class="highcharts-point"></rect><rect x="266" y="57" width="9" height="198" fill="#FF8028" class="highcharts-point"></rect><rect x="283" y="55" width="9" height="200" fill="#FF8028" class="highcharts-point"></rect><rect x="300" y="52" width="9" height="203" fill="#FF8028" class="highcharts-point"></rect><rect x="318" y="52" width="9" height="203" fill="#FF8028" class="highcharts-point"></rect><rect x="335" y="51" width="9" height="204" fill="#FF8028" class="highcharts-point"></rect><rect x="353" y="51" width="9" height="204" fill="#FF8028" class="highcharts-point"></rect><rect x="370" y="47" width="9" height="208" fill="#FF8028" class="highcharts-point"></rect></g><g class="highcharts-markers highcharts-series-0 highcharts-column-series highcharts-color-undefined " transform="translate(49,90) scale(1 1)" clip-path="none"></g><g class="highcharts-series highcharts-series-1 highcharts-line-series highcharts-color-undefined " transform="translate(49,90) scale(1 1)" clip-path="url(#highcharts-k4z32m2-10)"><path fill="none" d="M 8.7045454545455 64.19850000000002 L 26.113636363636 63.881 L 43.522727272727 63.563500000000005 L 60.931818181818 59.30899999999997 L 78.340909090909 56.3245 L 95.75 53.53050000000002 L 113.15909090909 51.49850000000001 L 130.56818181818 52.323999999999984 L 147.97727272727 54.0385 L 165.38636363636 43.43399999999997 L 182.79545454545 44.767499999999984 L 200.20454545455 46.037499999999994 L 217.61363636364 47.24399999999997 L 235.02272727273 49.02199999999999 L 252.43181818182 51.37149999999997 L 269.84090909091 51.24449999999999 L 287.25 50.292 L 304.65909090909 47.625 L 322.06818181818 50.673 L 339.47727272727 51.18100000000001 L 356.88636363636 52.958999999999975 L 374.29545454545 50.80000000000001" class="highcharts-graph" stroke="#DC440E" stroke-width="2" stroke-linejoin="round" stroke-linecap="round"></path></g><g class="highcharts-markers highcharts-series-1 highcharts-line-series highcharts-color-undefined " transform="translate(49,90) scale(1 1)" clip-path="none"></g></g><text x="10" text-anchor="start" class="highcharts-title" style="color:#000000;font-size:1.1em;font-weight:bold;fill:#000000;" y="20"><tspan>Motorfahrzeuge</tspan></text><text x="10" text-anchor="start" class="highcharts-subtitle" style="color:#000000;font-size:0.9em;fill:#000000;" y="38"><tspan>Anzahl Motorfahrzeuge; Anzahl Personenwagen pro 1000 Einwohner</tspan></text><g class="highcharts-legend" transform="translate(10,40)"><rect fill="none" class="highcharts-legend-box" rx="0" ry="0" x="0" y="0" width="431" height="38" visibility="visible"></rect><g><g><g class="highcharts-legend-item highcharts-column-series highcharts-color-undefined highcharts-series-0" transform="translate(12,7)"><text x="21" style="color:#333333;font-size:1em;font-weight:normal;cursor:pointer;fill:#333333;" text-anchor="start" y="15"><tspan>BS: Motorfahrzeugbestand</tspan></text><rect x="2" y="4" width="12" height="12" fill="#FF8028" class="highcharts-point"></rect></g><g class="highcharts-legend-item highcharts-line-series highcharts-color-undefined highcharts-series-1" transform="translate(195.65625,7)"><path fill="none" d="M 0 11 L 16 11" class="highcharts-graph" stroke="#DC440E" stroke-width="2"></path><text x="21" y="15" style="color:#333333;font-size:1em;font-weight:normal;cursor:pointer;fill:#333333;" text-anchor="start"><tspan>BS: Motorisierungsgrad (rechte Skala)</tspan></text></g></g></g></g><g class="highcharts-axis-labels highcharts-xaxis-labels "><text x="57.70454545454545" style="color:#000000;cursor:default;font-size:0.9em;fill:#000000;" text-anchor="middle" transform="translate(0,0)" y="363" opacity="1">1995</text><text x="92.52272727272728" style="color:#000000;cursor:default;font-size:0.9em;fill:#000000;" text-anchor="middle" transform="translate(0,0)" y="363" opacity="1">1997</text><text x="127.3409090909091" style="color:#000000;cursor:default;font-size:0.9em;fill:#000000;" text-anchor="middle" transform="translate(0,0)" y="363" opacity="1">1999</text><text x="162.15909090909093" style="color:#000000;cursor:default;font-size:0.9em;fill:#000000;" text-anchor="middle" transform="translate(0,0)" y="363" opacity="1">2001</text><text x="196.97727272727275" style="color:#000000;cursor:default;font-size:0.9em;fill:#000000;" text-anchor="middle" transform="translate(0,0)" y="363" opacity="1">2003</text><text x="231.79545454545456" style="color:#000000;cursor:default;font-size:0.9em;fill:#000000;" text-anchor="middle" transform="translate(0,0)" y="363" opacity="1">2005</text><text x="266.6136363636364" style="color:#000000;cursor:default;font-size:0.9em;fill:#000000;" text-anchor="middle" transform="translate(0,0)" y="363" opacity="1">2007</text><text x="301.43181818181824" style="color:#000000;cursor:default;font-size:0.9em;fill:#000000;" text-anchor="middle" transform="translate(0,0)" y="363" opacity="1">2009</text><text x="336.25" style="color:#000000;cursor:default;font-size:0.9em;fill:#000000;" text-anchor="middle" transform="translate(0,0)" y="363" opacity="1">2011</text><text x="371.0681818181818" style="color:#000000;cursor:default;font-size:0.9em;fill:#000000;" text-anchor="middle" transform="translate(0,0)" y="363" opacity="1">2013</text><text x="405.8863636363636" style="color:#000000;cursor:default;font-size:0.9em;fill:#000000;" text-anchor="middle" transform="translate(0,0)" y="363" opacity="1">2015</text></g><g class="highcharts-axis-labels highcharts-yaxis-labels "><text x="34" style="color:#000000;cursor:default;font-size:0.9em;fill:#000000;" text-anchor="end" transform="translate(0,0)" y="349" opacity="1"><tspan>0</tspan></text><text x="34" style="color:#000000;cursor:default;font-size:0.9em;fill:#000000;" text-anchor="end" transform="translate(0,0)" y="285" opacity="1"><tspan>25k</tspan></text><text x="34" style="color:#000000;cursor:default;font-size:0.9em;fill:#000000;" text-anchor="end" transform="translate(0,0)" y="222" opacity="1"><tspan>50k</tspan></text><text x="34" style="color:#000000;cursor:default;font-size:0.9em;fill:#000000;" text-anchor="end" transform="translate(0,0)" y="158" opacity="1"><tspan>75k</tspan></text><text x="34" style="color:#000000;cursor:default;font-size:0.9em;fill:#000000;" text-anchor="end" transform="translate(0,0)" y="94" opacity="1"><tspan>100k</tspan></text></g><g class="highcharts-axis-labels highcharts-yaxis-labels "><text x="447" style="color:#000000;cursor:default;font-size:0.9em;fill:#000000;" text-anchor="start" transform="translate(0,0)" y="349" opacity="1"><tspan>0</tspan></text><text x="447" style="color:#000000;cursor:default;font-size:0.9em;fill:#000000;" text-anchor="start" transform="translate(0,0)" y="285" opacity="1"><tspan>100</tspan></text><text x="447" style="color:#000000;cursor:default;font-size:0.9em;fill:#000000;" text-anchor="start" transform="translate(0,0)" y="222" opacity="1"><tspan>200</tspan></text><text x="447" style="color:#000000;cursor:default;font-size:0.9em;fill:#000000;" text-anchor="start" transform="translate(0,0)" y="158" opacity="1"><tspan>300</tspan></text><text x="447" style="color:#000000;cursor:default;font-size:0.9em;fill:#000000;" text-anchor="start" transform="translate(0,0)" y="95" opacity="1"><tspan>400</tspan></text></g><text x="10" class="highcharts-credits" text-anchor="start" style="cursor:default;color:#000000;font-size:0.8em;fill:#000000;" y="400"><tspan>Quelle: Kantonspolizei Basel-Stadt, Motorfahrzeugkontrolle; Statistisches Amt Basel-Stadt;</tspan><tspan dy="12.600000000000001" x="10">Motorfahrzeugkontrolle Basel-Landschaft; Statistisches Amt Basel-Landschaft</tspan><title>Quelle: Kantonspolizei Basel-Stadt, Motorfahrzeugkontrolle; Statistisches Amt Basel-Stadt; Motorfahrzeugkontrolle Basel-Landschaft; Statistisches Amt Basel-Landschaft</title></text></svg>

<svg class="highcharts-root" xmlns="http://www.w3.org/2000/svg" viewBox="0 0 485 415" font-family="Arial" font-size="12">
    <defs>
        <clipPath id="a">
            <path fill="none" d="M0 0h383v254H0z"/>
        </clipPath>
        <clipPath id="b">
            <path fill="none" d="M0 0h383v254H0z"/>
        </clipPath>
    </defs>
    <rect fill="#fbfbfb" class="highcharts-background" width="485" height="415" rx="0" ry="0"/>
    <path fill="none" class="highcharts-plot-background" d="M49 90h383v254H49z"/>
    <text transform="translate(10 451)" class="highcharts-label" cursor="pointer">
        <tspan>&gt; Indikator-Details</tspan>
    </text>
    <g class="highcharts-grid highcharts-xaxis-grid">
        <path fill="none" class="highcharts-grid-line" d="M57.5 90v254m0-254v254m35-254v254m0-254v254m34-254v254m0-254v254m35-254v254m0-254v254m35-254v254m0-254v254m35-254v254m0-254v254m35-254v254m0-254v254m34-254v254m0-254v254m35-254v254m0-254v254m35-254v254m0-254v254m35-254v254m0-254v254"/>
    </g>
    <g class="highcharts-grid highcharts-yaxis-grid">
        <path fill="none" stroke="#e6e6e6" class="highcharts-grid-line" d="M49 344.5h383m-383-63h383m-383-64h383m-383-63h383m-383-64h383"/>
    </g>
    <g class="highcharts-grid highcharts-yaxis-grid">
        <path fill="none" stroke="#e6e6e6" class="highcharts-grid-line" d="M49 344.5h383m-383-63h383m-383-64h383m-383-63h383m-383-65h383"/>
    </g>
    <path fill="none" class="highcharts-plot-border" d="M49 90h383v254H49z"/>
    <g class="highcharts-axis highcharts-xaxis">
        <path fill="none" class="highcharts-axis-line" stroke="#ccd6eb" d="M49 344.5h383"/>
    </g>
    <g class="highcharts-axis highcharts-yaxis">
        <path fill="none" class="highcharts-axis-line" d="M49 90v254"/>
    </g>
    <g class="highcharts-axis highcharts-yaxis">
        <path fill="none" class="highcharts-axis-line" d="M432 90v254"/>
    </g>
    <g class="highcharts-series-group">
        <g class="highcharts-series highcharts-series-0 highcharts-column-series highcharts-color-undefined highcharts-tracker" transform="translate(49 90)" clip-path="url(#a)">
            <path fill="#FF8028" class="highcharts-point" d="M5 73h9v182H5zm17 0h9v182h-9zm17 1h9v181h-9zm18-3h9v184h-9zm17-2h9v186h-9zm18-1h9v187h-9zm17-1h9v188h-9zm17 1h9v187h-9zm18-1h9v188h-9zm17-12h9v200h-9zm18 1h9v199h-9zm17 1h9v198h-9zm17 0h9v198h-9zm18 1h9v197h-9zm17 0h9v197h-9zm18-1h9v198h-9zm17-2h9v200h-9zm17-3h9v203h-9zm18 0h9v203h-9zm17-1h9v204h-9zm18 0h9v204h-9zm17-4h9v208h-9z"/>
        </g>
        <g class="highcharts-series highcharts-series-1 highcharts-line-series highcharts-color-undefined" transform="translate(49 90)" clip-path="url(#b)">
            <path fill="none" d="M8.705 64.199l17.409-.318 17.409-.317 17.409-4.255 17.409-2.984L95.75 53.53l17.41-2.032 17.408.825 17.41 1.715 17.408-10.605 17.41 1.333 17.409 1.27 17.409 1.207 17.409 1.778 17.409 2.35 17.409-.128 17.409-.952 17.41-2.667 17.408 3.048 17.41.508 17.408 1.778 17.41-2.159" class="highcharts-graph" stroke="#DC440E" stroke-width="2" stroke-linejoin="round" stroke-linecap="round"/>
            <path fill="none" d="M-1.295 64.199h10l17.409-.318 17.409-.317 17.409-4.255 17.409-2.984L95.75 53.53l17.41-2.032 17.408.825 17.41 1.715 17.408-10.605 17.41 1.333 17.409 1.27 17.409 1.207 17.409 1.778 17.409 2.35 17.409-.128 17.409-.952 17.41-2.667 17.408 3.048 17.41.508 17.408 1.778 17.41-2.159h10" stroke-linejoin="round" stroke="rgba(192,192,192,0.0001)" stroke-width="22" class="highcharts-tracker"/>
        </g>
    </g>
    <text x="10" class="highcharts-title" y="20" color="#000" font-size="1.1em" font-weight="700">
        <tspan>Motorfahrzeuge</tspan>
    </text>
    <text x="10" class="highcharts-subtitle" y="38" color="#000" font-size=".9em">
        <tspan>Anzahl Motorfahrzeuge; Anzahl Personenwagen pro 1000 Einwohner</tspan>
    </text>
    <g class="highcharts-legend" transform="translate(10 40)">
        <rect fill="none" class="highcharts-legend-box" rx="0" ry="0" width="431" height="38"/>
        <g class="highcharts-legend-item highcharts-column-series highcharts-color-undefined highcharts-series-0">
            <text x="21" y="15" color="#333" font-size="1em" font-weight="400" cursor="pointer" fill="#333" transform="translate(12 7)">
                <tspan>BS: Motorfahrzeugbestand</tspan>
            </text>
            <path fill="#FF8028" class="highcharts-point" d="M14 11h12v12H14z"/>
        </g>
        <g class="highcharts-legend-item highcharts-line-series highcharts-color-undefined highcharts-series-1">
            <path fill="none" d="M195.656 18h16" class="highcharts-graph" stroke="#DC440E" stroke-width="2"/>
            <text x="21" y="15" color="#333" font-size="1em" font-weight="400" cursor="pointer" fill="#333" transform="translate(195.656 7)">
                <tspan>BS: Motorisierungsgrad (rechte Skala)</tspan>
            </text>
        </g>
    </g>
    <g class="highcharts-axis-labels highcharts-xaxis-labels" text-anchor="middle" color="#000" cursor="default" font-size=".9em">
        <text x="57.705" y="363">
            1995
        </text>
        <text x="92.523" y="363">
            1997
        </text>
        <text x="127.341" y="363">
            1999
        </text>
        <text x="162.159" y="363">
            2001
        </text>
        <text x="196.977" y="363">
            2003
        </text>
        <text x="231.795" y="363">
            2005
        </text>
        <text x="266.614" y="363">
            2007
        </text>
        <text x="301.432" y="363">
            2009
        </text>
        <text x="336.25" y="363">
            2011
        </text>
        <text x="371.068" y="363">
            2013
        </text>
        <text x="405.886" y="363">
            2015
        </text>
    </g>
    <g class="highcharts-axis-labels highcharts-yaxis-labels" text-anchor="end" color="#000" cursor="default" font-size=".9em">
        <text x="34" y="349">
            <tspan>0</tspan>
        </text>
        <text x="34" y="285">
            <tspan>25k</tspan>
        </text>
        <text x="34" y="222">
            <tspan>50k</tspan>
        </text>
        <text x="34" y="158">
            <tspan>75k</tspan>
        </text>
        <text x="34" y="94">
            <tspan>100k</tspan>
        </text>
    </g>
    <g class="highcharts-axis-labels highcharts-yaxis-labels" color="#000" cursor="default" font-size=".9em">
        <text x="447" y="349">
            <tspan>0</tspan>
        </text>
        <text x="447" y="285">
            <tspan>100</tspan>
        </text>
        <text x="447" y="222">
            <tspan>200</tspan>
        </text>
        <text x="447" y="158">
            <tspan>300</tspan>
        </text>
        <text x="447" y="95">
            <tspan>400</tspan>
        </text>
    </g>
    <text x="10" class="highcharts-credits" y="400" cursor="default" color="#000" font-size=".8em">
        <tspan>Quelle: Kantonspolizei Basel-Stadt, Motorfahrzeugkontrolle; Statistisches Amt Basel-Stadt;</tspan><tspan dy="12.6" x="10">Motorfahrzeugkontrolle Basel-Landschaft; Statistisches Amt Basel-Landschaft</tspan><title>Quelle: Kantonspolizei Basel-Stadt, Motorfahrzeugkontrolle; Statistisches Amt Basel-Stadt; Motorfahrzeugkontrolle Basel-Landschaft; Statistisches Amt Basel-Landschaft</title>
    </text>
</svg>
